;FLAVOR:RepRap
M190 S60 ;bed temperature,and wait
M104 S200 ;extruder temperature
M109 S200 ;extruder temperature, and wait
M82 ;absolute extrusion
G28 ;home
G1 Z15.0 F6000 ;lift nozzle
G92 E0; 
G1 F200 E2
G92 E0
M83 ;relative extrusion
M107 ;fan off
;start
G0 F3600 X150.0066 Y194.3517 Z0.2000
G1 F1800 X148.5966 Y194.6307 E0.04781
G1 X148.5966 Y194.6307 E0.00000
G1 X147.8294 Y194.7825 E0.02601
G1 X147.4241 Y194.9824 E0.01503
G1 X146.6577 Y195.5702 E0.03212
G1 X146.6527 Y195.5738 E0.00021
G1 X146.6470 Y195.5778 E0.00023
G1 X146.0020 Y196.0082 E0.02579
G1 X145.4323 Y196.7505 E0.03112
G1 X145.2219 Y197.1768 E0.01581
G1 X145.2195 Y197.1815 E0.00017
G1 X145.2161 Y197.1876 E0.00023
G1 X145.2126 Y197.1936 E0.00023
G1 X145.2088 Y197.1995 E0.00023
G1 X144.7816 Y197.8385 E0.02557
G1 X144.5015 Y199.2469 E0.04776
G1 X144.4993 Y199.2565 E0.00033
G1 X144.3115 Y200.0052 E0.02567
G1 X144.4971 Y200.9442 E0.03184
G1 X144.7777 Y202.1593 E0.04148
G1 X144.9812 Y202.5731 E0.01534
G1 X145.5648 Y203.3353 E0.03193
G1 X145.5686 Y203.3404 E0.00021
G1 X145.5726 Y203.3461 E0.00023
G1 X146.0019 Y203.9917 E0.02579
G1 X146.7483 Y204.5655 E0.03131
G1 X147.1692 Y204.7736 E0.01562
G1 X147.1740 Y204.7761 E0.00018
G1 X147.1801 Y204.7794 E0.00023
G1 X147.1861 Y204.7830 E0.00023
G1 X147.1920 Y204.7868 E0.00023
G1 X147.8303 Y205.2150 E0.02557
G1 X149.2397 Y205.4973 E0.04781
G1 X149.2397 Y205.4973 E0.00000
G1 X149.9934 Y205.6483 E0.02557
G1 X151.4034 Y205.3693 E0.04781
G1 X151.4034 Y205.3693 E0.00000
G1 X152.1706 Y205.2175 E0.02601
G1 X152.5759 Y205.0176 E0.01503
G1 X153.3423 Y204.4298 E0.03212
G1 X153.3473 Y204.4262 E0.00021
G1 X153.3530 Y204.4222 E0.00023
G1 X153.9980 Y203.9918 E0.02579
G1 X154.5677 Y203.2495 E0.03112
G1 X154.7781 Y202.8232 E0.01581
G1 X154.7805 Y202.8185 E0.00017
G1 X154.7839 Y202.8124 E0.00023
G1 X154.7874 Y202.8064 E0.00023
G1 X154.7912 Y202.8005 E0.00023
G1 X155.2184 Y202.1615 E0.02557
G1 X155.4985 Y200.7531 E0.04776
G1 X155.5007 Y200.7435 E0.00033
G1 X155.6885 Y199.9948 E0.02567
G1 X155.5029 Y199.0558 E0.03184
G1 X155.2223 Y197.8407 E0.04148
G1 X155.0188 Y197.4269 E0.01534
G1 X154.4352 Y196.6647 E0.03193
G1 X154.4314 Y196.6596 E0.00021
G1 X154.4274 Y196.6539 E0.00023
G1 X153.9981 Y196.0083 E0.02579
G1 X153.2517 Y195.4345 E0.03131
G1 X152.8308 Y195.2264 E0.01562
G1 X152.8260 Y195.2239 E0.00018
G1 X152.8199 Y195.2206 E0.00023
G1 X152.8139 Y195.2170 E0.00023
G1 X152.8080 Y195.2132 E0.00023
G1 X152.1697 Y194.7850 E0.02557
G1 X150.7603 Y194.5027 E0.04781
G1 X150.7603 Y194.5027 E0.00000
G1 X150.0066 Y194.3517 E0.02557
G0 F3600 X150.0061 Y194.7595 Z0.2000
G1 F1800 X148.6742 Y195.0231 E0.04516
G1 X148.6742 Y195.0231 E0.00000
G1 X147.9589 Y195.1647 E0.02425
G1 X147.6362 Y195.3237 E0.01196
G1 X146.9011 Y195.8876 E0.03081
G1 X146.8862 Y195.8986 E0.00062
G1 X146.8690 Y195.9105 E0.00070
G1 X146.2790 Y196.3042 E0.02359
G1 X145.7735 Y196.9628 E0.02761
G1 X145.5806 Y197.3538 E0.01450
G1 X145.5735 Y197.3678 E0.00052
G1 X145.5634 Y197.3861 E0.00070
G1 X145.5527 Y197.4041 E0.00070
G1 X145.5413 Y197.4217 E0.00070
G1 X145.1584 Y197.9946 E0.02292
G1 X144.8938 Y199.3249 E0.04511
G1 X144.8873 Y199.3538 E0.00099
G1 X144.7213 Y200.0156 E0.02269
G1 X144.8883 Y200.8604 E0.02864
G1 X145.1570 Y202.0243 E0.03973
G1 X145.3227 Y202.3612 E0.01249
G1 X145.8824 Y203.0921 E0.03062
G1 X145.8937 Y203.1074 E0.00063
G1 X145.9056 Y203.1246 E0.00070
G1 X146.2983 Y203.7150 E0.02358
G1 X146.9609 Y204.2244 E0.02780
G1 X147.3465 Y204.4151 E0.01431
G1 X147.3609 Y204.4224 E0.00054
G1 X147.3792 Y204.4325 E0.00070
G1 X147.3972 Y204.4433 E0.00070
G1 X147.4148 Y204.4546 E0.00070
G1 X147.9870 Y204.8384 E0.02292
G1 X149.3183 Y205.1051 E0.04516
G1 X149.3183 Y205.1051 E0.00000
G1 X149.9939 Y205.2405 E0.02292
G1 X151.3258 Y204.9769 E0.04516
G1 X151.3258 Y204.9769 E0.00000
G1 X152.0411 Y204.8353 E0.02425
G1 X152.3638 Y204.6763 E0.01196
G1 X153.0989 Y204.1124 E0.03081
G1 X153.1138 Y204.1014 E0.00062
G1 X153.1310 Y204.0895 E0.00070
G1 X153.7210 Y203.6958 E0.02359
G1 X154.2265 Y203.0372 E0.02761
G1 X154.4194 Y202.6462 E0.01450
G1 X154.4265 Y202.6322 E0.00052
G1 X154.4366 Y202.6139 E0.00070
G1 X154.4473 Y202.5959 E0.00070
G1 X154.4587 Y202.5783 E0.00070
G1 X154.8416 Y202.0054 E0.02292
G1 X155.1062 Y200.6751 E0.04511
G1 X155.1127 Y200.6462 E0.00099
G1 X155.2787 Y199.9844 E0.02269
G1 X155.1117 Y199.1396 E0.02864
G1 X154.8430 Y197.9757 E0.03973
G1 X154.6773 Y197.6388 E0.01249
G1 X154.1176 Y196.9079 E0.03062
G1 X154.1063 Y196.8926 E0.00063
G1 X154.0944 Y196.8754 E0.00070
G1 X153.7017 Y196.2850 E0.02358
G1 X153.0391 Y195.7756 E0.02780
G1 X152.6535 Y195.5849 E0.01431
G1 X152.6391 Y195.5776 E0.00054
G1 X152.6208 Y195.5675 E0.00070
G1 X152.6028 Y195.5567 E0.00070
G1 X152.5852 Y195.5454 E0.00070
G1 X152.0130 Y195.1616 E0.02292
G1 X150.6817 Y194.8949 E0.04516
G1 X150.6817 Y194.8949 E0.00000
G1 X150.0061 Y194.7595 E0.02292
G0 F3600 X145.5205 Y201.8207 Z0.2000
G1 F1800 X145.5205 Y198.2244 E0.11961
G0 F3600 X145.9205 Y197.5667 Z0.2000
G1 F1800 X145.9205 Y202.4839 E0.16355
G0 F3600 X146.3205 Y203.0261 Z0.2000
G1 F1800 X146.3205 Y196.9071 E0.20352
G0 F3600 X146.7205 Y196.4905 Z0.2000
G1 F1800 X146.7205 Y203.5351 E0.23430
G0 F3600 X147.1205 Y203.8426 Z0.2000
G1 F1800 X147.1205 Y196.2228 E0.25344
G0 F3600 X147.5205 Y195.9166 Z0.2000
G1 F1800 X147.5205 Y204.0549 E0.27068
G0 F3600 X147.9205 Y204.3122 Z0.2000
G1 F1800 X147.9205 Y195.6296 E0.28879
G0 F3600 X148.3205 Y195.5009 Z0.2000
G1 F1800 X148.3205 Y204.4973 E0.29922
G0 F3600 X148.7205 Y204.5774 Z0.2000
G1 F1800 X148.7205 Y195.4217 E0.30452
G0 F3600 X149.1205 Y195.3426 Z0.2000
G1 F1800 X149.1205 Y204.6576 E0.30982
G0 F3600 X149.5205 Y204.7377 Z0.2000
G1 F1800 X149.5205 Y195.2634 E0.31512
G0 F3600 X149.9205 Y195.1842 Z0.2000
G1 F1800 X149.9205 Y204.8178 E0.32041
G0 F3600 X150.3205 Y204.7681 Z0.2000
G1 F1800 X150.3205 Y195.2305 E0.31722
G0 F3600 X150.7205 Y195.3106 Z0.2000
G1 F1800 X150.7205 Y204.6889 E0.31192
G0 F3600 X151.1205 Y204.6097 Z0.2000
G1 F1800 X151.1205 Y195.3907 E0.30663
G0 F3600 X151.5205 Y195.4709 Z0.2000
G1 F1800 X151.5205 Y204.5306 E0.30133
G0 F3600 X151.9205 Y204.4488 Z0.2000
G1 F1800 X151.9205 Y195.5812 E0.29494
G0 F3600 X152.3205 Y195.8495 Z0.2000
G1 F1800 X152.3205 Y204.2053 E0.27792
G0 F3600 X152.7205 Y203.8986 Z0.2000
G1 F1800 X152.7205 Y196.0643 E0.26057
G0 F3600 X153.1205 Y196.3427 Z0.2000
G1 F1800 X153.1205 Y203.6156 E0.24190
G0 F3600 X153.5205 Y203.3000 Z0.2000
G1 F1800 X153.5205 Y196.7349 E0.21836
G0 F3600 X153.9205 Y197.3085 Z0.2000
G1 F1800 X153.9205 Y202.7533 E0.18109
G0 F3600 X154.3205 Y202.0651 Z0.2000
G1 F1800 X154.3205 Y197.8309 E0.14083
G0 F3600 X154.7205 Y199.2235 Z0.2000
G1 F1800 X154.7205 Y200.5675 E0.04470
;LAYER: 1
G0 F3600 X150.0071 Y193.9449 Z0.4000
G1 F1800 X149.2343 Y194.0978 E0.02620
G1 X149.2343 Y194.0978 E0.00000
G1 X147.6740 Y194.4066 E0.05290
G1 X147.4651 Y194.5096 E0.00775
G1 X147.0426 Y194.8336 E0.01771
G1 X147.0376 Y194.8373 E0.00021
G1 X147.0319 Y194.8413 E0.00023
G1 X145.7144 Y195.7205 E0.05268
G1 X145.4094 Y196.1179 E0.01666
G1 X145.2953 Y196.3490 E0.00857
G1 X145.2930 Y196.3537 E0.00017
G1 X145.2896 Y196.3598 E0.00023
G1 X145.2860 Y196.3658 E0.00023
G1 X145.2823 Y196.3716 E0.00023
G1 X144.4058 Y197.6828 E0.05246
G1 X144.2523 Y198.4547 E0.02618
G1 X144.2501 Y198.4643 E0.00033
G1 X143.8979 Y199.8681 E0.04814
G1 X143.8731 Y200.0001 E0.00447
G1 X143.8979 Y200.1329 E0.00449
G1 X144.4015 Y202.3141 E0.07446
G1 X144.5072 Y202.5290 E0.00797
G1 X144.8289 Y202.9492 E0.01760
G1 X144.8327 Y202.9543 E0.00021
G1 X144.8366 Y202.9600 E0.00023
G1 X145.7137 Y204.2788 E0.05268
G1 X146.1135 Y204.5861 E0.01677
G1 X146.3415 Y204.6989 E0.00846
G1 X146.3463 Y204.7013 E0.00018
G1 X146.3524 Y204.7047 E0.00023
G1 X146.3584 Y204.7083 E0.00023
G1 X146.3643 Y204.7120 E0.00023
G1 X147.6740 Y205.5906 E0.05246
G1 X148.4465 Y205.7453 E0.02620
G1 X148.4465 Y205.7453 E0.00000
G1 X149.9929 Y206.0551 E0.05246
G1 X150.7657 Y205.9022 E0.02620
G1 X150.7657 Y205.9022 E0.00000
G1 X152.3260 Y205.5934 E0.05290
G1 X152.5349 Y205.4904 E0.00775
G1 X152.9574 Y205.1664 E0.01771
G1 X152.9624 Y205.1627 E0.00021
G1 X152.9681 Y205.1587 E0.00023
G1 X154.2856 Y204.2795 E0.05268
G1 X154.5906 Y203.8821 E0.01666
G1 X154.7047 Y203.6510 E0.00857
G1 X154.7070 Y203.6463 E0.00017
G1 X154.7104 Y203.6402 E0.00023
G1 X154.7140 Y203.6342 E0.00023
G1 X154.7177 Y203.6284 E0.00023
G1 X155.5942 Y202.3172 E0.05246
G1 X155.7477 Y201.5453 E0.02618
G1 X155.7499 Y201.5357 E0.00033
G1 X156.1021 Y200.1319 E0.04814
G1 X156.1269 Y199.9999 E0.00447
G1 X156.1021 Y199.8671 E0.00449
G1 X155.5985 Y197.6859 E0.07446
G1 X155.4928 Y197.4710 E0.00797
G1 X155.1711 Y197.0508 E0.01760
G1 X155.1673 Y197.0457 E0.00021
G1 X155.1634 Y197.0400 E0.00023
G1 X154.2863 Y195.7212 E0.05268
G1 X153.8865 Y195.4139 E0.01677
G1 X153.6585 Y195.3011 E0.00846
G1 X153.6537 Y195.2987 E0.00018
G1 X153.6476 Y195.2953 E0.00023
G1 X153.6416 Y195.2917 E0.00023
G1 X153.6357 Y195.2880 E0.00023
G1 X152.3260 Y194.4094 E0.05246
G1 X151.5535 Y194.2547 E0.02620
G1 X151.5535 Y194.2547 E0.00000
G1 X150.0071 Y193.9449 E0.05246
G0 F3600 X150.0066 Y194.3527 Z0.4000
G1 F1800 X149.3120 Y194.4902 E0.02355
G1 X149.3120 Y194.4902 E0.00000
G1 X147.8035 Y194.7887 E0.05114
G1 X147.6773 Y194.8509 E0.00468
G1 X147.2860 Y195.1510 E0.01640
G1 X147.2712 Y195.1621 E0.00062
G1 X147.2539 Y195.1740 E0.00070
G1 X145.9915 Y196.0165 E0.05048
G1 X145.7507 Y196.3302 E0.01316
G1 X145.6540 Y196.5260 E0.00726
G1 X145.6469 Y196.5400 E0.00052
G1 X145.6369 Y196.5583 E0.00070
G1 X145.6261 Y196.5763 E0.00070
G1 X145.6148 Y196.5939 E0.00070
G1 X144.7826 Y197.8389 E0.04981
G1 X144.6446 Y198.5327 E0.02353
G1 X144.6381 Y198.5617 E0.00099
G1 X144.2888 Y199.9539 E0.04774
G1 X144.2801 Y200.0004 E0.00157
G1 X144.2895 Y200.0510 E0.00171
G1 X144.7808 Y202.1790 E0.07264
G1 X144.8487 Y202.3171 E0.00512
G1 X145.1465 Y202.7060 E0.01629
G1 X145.1578 Y202.7213 E0.00063
G1 X145.1697 Y202.7385 E0.00070
G1 X146.0101 Y204.0021 E0.05047
G1 X146.3260 Y204.2450 E0.01326
G1 X146.5188 Y204.3403 E0.00715
G1 X146.5332 Y204.3476 E0.00054
G1 X146.5515 Y204.3577 E0.00070
G1 X146.5695 Y204.3685 E0.00070
G1 X146.5871 Y204.3798 E0.00070
G1 X147.8307 Y205.2140 E0.04981
G1 X148.5251 Y205.3531 E0.02355
G1 X148.5251 Y205.3531 E0.00000
G1 X149.9934 Y205.6473 E0.04981
G1 X150.6880 Y205.5098 E0.02355
G1 X150.6880 Y205.5098 E0.00000
G1 X152.1965 Y205.2113 E0.05114
G1 X152.3227 Y205.1491 E0.00468
G1 X152.7140 Y204.8490 E0.01640
G1 X152.7288 Y204.8379 E0.00062
G1 X152.7461 Y204.8260 E0.00070
G1 X154.0085 Y203.9835 E0.05048
G1 X154.2493 Y203.6698 E0.01316
G1 X154.3460 Y203.4740 E0.00726
G1 X154.3531 Y203.4600 E0.00052
G1 X154.3631 Y203.4417 E0.00070
G1 X154.3739 Y203.4237 E0.00070
G1 X154.3852 Y203.4061 E0.00070
G1 X155.2174 Y202.1611 E0.04981
G1 X155.3554 Y201.4673 E0.02353
G1 X155.3619 Y201.4383 E0.00099
G1 X155.7112 Y200.0461 E0.04774
G1 X155.7199 Y199.9996 E0.00157
G1 X155.7105 Y199.9490 E0.00171
G1 X155.2192 Y197.8210 E0.07264
G1 X155.1513 Y197.6829 E0.00512
G1 X154.8535 Y197.2940 E0.01629
G1 X154.8422 Y197.2787 E0.00063
G1 X154.8303 Y197.2615 E0.00070
G1 X153.9899 Y195.9979 E0.05047
G1 X153.6740 Y195.7550 E0.01326
G1 X153.4812 Y195.6597 E0.00715
G1 X153.4668 Y195.6524 E0.00054
G1 X153.4485 Y195.6423 E0.00070
G1 X153.4305 Y195.6315 E0.00070
G1 X153.4129 Y195.6202 E0.00070
G1 X152.1693 Y194.7860 E0.04981
G1 X151.4749 Y194.6469 E0.02355
G1 X151.4749 Y194.6469 E0.00000
G1 X150.0066 Y194.3527 E0.04981
G0 F3600 X149.8934 Y194.7829 Z0.4000
G1 F1800 X150.1176 Y194.7829 E0.00746
G0 F3600 X152.0430 Y195.1829 Z0.4000
G1 F1800 X147.9085 Y195.1829 E0.13751
G0 F3600 X147.3618 Y195.5829 Z0.4000
G1 F1800 X152.6393 Y195.5829 E0.17553
G0 F3600 X153.2389 Y195.9829 Z0.4000
G1 F1800 X146.7624 Y195.9829 E0.21541
G0 F3600 X146.2145 Y196.3829 Z0.4000
G1 F1800 X153.7656 Y196.3829 E0.25115
G0 F3600 X154.0316 Y196.7829 Z0.4000
G1 F1800 X145.9686 Y196.7829 E0.26818
G0 F3600 X145.7022 Y197.1829 Z0.4000
G1 F1800 X154.2976 Y197.1829 E0.28588
G0 F3600 X154.5709 Y197.5829 Z0.4000
G1 F1800 X145.4349 Y197.5829 E0.30387
G0 F3600 X145.1675 Y197.9829 Z0.4000
G1 F1800 X154.8461 Y197.9829 E0.32191
G0 F3600 X154.9384 Y198.3829 Z0.4000
G1 F1800 X145.0822 Y198.3829 E0.32782
G0 F3600 X144.9950 Y198.7829 Z0.4000
G1 F1800 X155.0308 Y198.7829 E0.33379
G0 F3600 X155.1231 Y199.1829 Z0.4000
G1 F1800 X144.8946 Y199.1829 E0.34020
G0 F3600 X144.7943 Y199.5829 Z0.4000
G1 F1800 X155.2154 Y199.5829 E0.34661
G0 F3600 X155.3078 Y199.9829 Z0.4000
G1 F1800 X144.6939 Y199.9829 E0.35302
G0 F3600 X144.7767 Y200.3829 Z0.4000
G1 F1800 X155.2143 Y200.3829 E0.34716
G0 F3600 X155.1140 Y200.7829 Z0.4000
G1 F1800 X144.8690 Y200.7829 E0.34075
G0 F3600 X144.9614 Y201.1829 Z0.4000
G1 F1800 X155.0136 Y201.1829 E0.33434
G0 F3600 X154.9246 Y201.5829 Z0.4000
G1 F1800 X145.0537 Y201.5829 E0.32831
G0 F3600 X145.1460 Y201.9829 Z0.4000
G1 F1800 X154.8450 Y201.9829 E0.32259
G0 F3600 X154.5880 Y202.3829 Z0.4000
G1 F1800 X145.4029 Y202.3829 E0.30550
G0 F3600 X145.6796 Y202.7829 Z0.4000
G1 F1800 X154.3206 Y202.7829 E0.28740
G0 F3600 X154.0532 Y203.1829 Z0.4000
G1 F1800 X145.9457 Y203.1829 E0.26966
G0 F3600 X146.2117 Y203.5829 Z0.4000
G1 F1800 X153.8118 Y203.5829 E0.25278
G0 F3600 X153.2888 Y203.9829 Z0.4000
G1 F1800 X146.6984 Y203.9829 E0.21920
G0 F3600 X147.3097 Y204.3829 Z0.4000
G1 F1800 X152.6894 Y204.3829 E0.17893
G0 F3600 X152.1428 Y204.7829 Z0.4000
G1 F1800 X147.9061 Y204.7829 E0.14091
G0 F3600 X149.7118 Y205.1829 Z0.4000
G1 F1800 X150.2793 Y205.1829 E0.01887
;LAYER: 2
M106 S255 ;fan on
M104 S200 ;extruder temperature
M140 S60 ;bed temperature
G0 F3600 X150.0076 Y193.5381 Z0.6000
G1 F1800 X149.8720 Y193.5649 E0.00460
G1 X149.8720 Y193.5649 E0.00000
G1 X147.5187 Y194.0306 E0.07979
G1 X147.5062 Y194.0368 E0.00046
G1 X147.4276 Y194.0971 E0.00330
G1 X147.4226 Y194.1008 E0.00021
G1 X147.4169 Y194.1047 E0.00023
G1 X145.4269 Y195.4327 E0.07957
G1 X145.3865 Y195.4853 E0.00221
G1 X145.3688 Y195.5212 E0.00133
G1 X145.3664 Y195.5258 E0.00017
G1 X145.3631 Y195.5320 E0.00023
G1 X145.3595 Y195.5380 E0.00023
G1 X145.3557 Y195.5438 E0.00023
G1 X144.0300 Y197.5271 E0.07935
G1 X144.0030 Y197.6625 E0.00459
G1 X144.0009 Y197.6722 E0.00033
G1 X143.9262 Y197.9696 E0.01020
G1 X143.5435 Y200.0001 E0.06872
G1 X143.9218 Y202.0206 E0.06837
G1 X144.0252 Y202.4689 E0.01530
G1 X144.0331 Y202.4849 E0.00060
G1 X144.0930 Y202.5630 E0.00327
G1 X144.0967 Y202.5681 E0.00021
G1 X144.1007 Y202.5739 E0.00023
G1 X145.4255 Y204.5658 E0.07957
G1 X145.4786 Y204.6067 E0.00223
G1 X145.5138 Y204.6241 E0.00131
G1 X145.5186 Y204.6265 E0.00018
G1 X145.5247 Y204.6299 E0.00023
G1 X145.5307 Y204.6335 E0.00023
G1 X145.5366 Y204.6373 E0.00023
G1 X147.5178 Y205.9661 E0.07935
G1 X147.6533 Y205.9933 E0.00460
G1 X147.6533 Y205.9933 E0.00000
G1 X149.9924 Y206.4619 E0.07935
G1 X150.1280 Y206.4351 E0.00460
G1 X150.1280 Y206.4351 E0.00000
G1 X152.4813 Y205.9694 E0.07979
G1 X152.4938 Y205.9632 E0.00046
G1 X152.5724 Y205.9029 E0.00330
G1 X152.5774 Y205.8992 E0.00021
G1 X152.5831 Y205.8953 E0.00023
G1 X154.5731 Y204.5673 E0.07957
G1 X154.6135 Y204.5147 E0.00221
G1 X154.6312 Y204.4788 E0.00133
G1 X154.6336 Y204.4742 E0.00017
G1 X154.6369 Y204.4680 E0.00023
G1 X154.6405 Y204.4620 E0.00023
G1 X154.6443 Y204.4562 E0.00023
G1 X155.9700 Y202.4729 E0.07935
G1 X155.9970 Y202.3375 E0.00459
G1 X155.9991 Y202.3278 E0.00033
G1 X156.0738 Y202.0304 E0.01020
G1 X156.4565 Y199.9999 E0.06872
G1 X156.0782 Y197.9794 E0.06837
G1 X155.9748 Y197.5311 E0.01530
G1 X155.9669 Y197.5151 E0.00060
G1 X155.9070 Y197.4370 E0.00327
G1 X155.9033 Y197.4319 E0.00021
G1 X155.8993 Y197.4261 E0.00023
G1 X154.5745 Y195.4342 E0.07957
G1 X154.5214 Y195.3933 E0.00223
G1 X154.4862 Y195.3759 E0.00131
G1 X154.4814 Y195.3735 E0.00018
G1 X154.4753 Y195.3701 E0.00023
G1 X154.4693 Y195.3665 E0.00023
G1 X154.4634 Y195.3627 E0.00023
G1 X152.4822 Y194.0339 E0.07935
G1 X152.3467 Y194.0067 E0.00460
G1 X152.3467 Y194.0067 E0.00000
G1 X150.0076 Y193.5381 E0.07935
G0 F3600 X150.0071 Y193.9459 Z0.6000
G1 F1800 X149.9497 Y193.9573 E0.00195
G1 X149.9497 Y193.9573 E0.00000
G1 X147.6820 Y194.4061 E0.07689
G1 X147.6710 Y194.4145 E0.00046
G1 X147.6561 Y194.4255 E0.00062
