;FLAVOR:RepRap
M190 S60 ;bed temperature,and wait
M104 S200 ;extruder temperature
M109 S200 ;extruder temperature, and wait
M82 ;absolute extrusion
G28 ;home
G1 Z15.0 F6000 ;lift nozzle
G92 E0; 
G1 F200 E2
G92 E0
M83 ;relative extrusion
M107 ;fan off
;start
G0 F3600 X157.3000 Y192.7000 Z0.2000
G1 F1800 X142.7000 Y192.7000 E0.48560
G1 X142.7000 Y207.3000 E0.48560
G1 X157.3000 Y207.3000 E0.48560
G1 X157.3000 Y192.7000 E0.48560
G0 F3600 X149.9974 Y195.4251 Z0.2000
G1 F1800 X150.0044 Y195.4251 E0.00023
G1 X150.0113 Y195.4254 E0.00023
G1 X150.0183 Y195.4259 E0.00023
G1 X150.0252 Y195.4267 E0.00023
G1 X150.0321 Y195.4277 E0.00023
G1 X150.0390 Y195.4289 E0.00023
G1 X151.7135 Y195.7620 E0.05678
G1 X151.7220 Y195.7639 E0.00029
G1 X151.7288 Y195.7657 E0.00023
G1 X151.7355 Y195.7677 E0.00023
G1 X151.7421 Y195.7699 E0.00023
G1 X151.7486 Y195.7724 E0.00023
G1 X151.7550 Y195.7751 E0.00023
G1 X151.7614 Y195.7780 E0.00023
G1 X151.7676 Y195.7811 E0.00023
G1 X151.7737 Y195.7845 E0.00023
G1 X151.7797 Y195.7881 E0.00023
G1 X151.7856 Y195.7919 E0.00023
G1 X153.2045 Y196.7399 E0.05676
G1 X153.2116 Y196.7449 E0.00029
G1 X153.2172 Y196.7492 E0.00023
G1 X153.2226 Y196.7536 E0.00023
G1 X153.2278 Y196.7582 E0.00023
G1 X153.2329 Y196.7630 E0.00023
G1 X153.2378 Y196.7679 E0.00023
G1 X153.2426 Y196.7730 E0.00023
G1 X153.2471 Y196.7783 E0.00023
G1 X153.2515 Y196.7838 E0.00023
G1 X153.2557 Y196.7894 E0.00023
G1 X153.2596 Y196.7951 E0.00023
G1 X154.2083 Y198.2149 E0.05679
G1 X154.2130 Y198.2222 E0.00029
G1 X154.2165 Y198.2282 E0.00023
G1 X154.2198 Y198.2344 E0.00023
G1 X154.2229 Y198.2406 E0.00023
G1 X154.2257 Y198.2470 E0.00023
G1 X154.2284 Y198.2535 E0.00023
G1 X154.2308 Y198.2600 E0.00023
G1 X154.2330 Y198.2667 E0.00023
G1 X154.2349 Y198.2734 E0.00023
G1 X154.2367 Y198.2801 E0.00023
G1 X154.2381 Y198.2869 E0.00023
G1 X154.5712 Y199.9610 E0.05677
G1 X154.5727 Y199.9696 E0.00029
G1 X154.5736 Y199.9765 E0.00023
G1 X154.5743 Y199.9834 E0.00023
G1 X154.5748 Y199.9904 E0.00023
G1 X154.5750 Y199.9974 E0.00023
G1 X154.5750 Y200.0044 E0.00023
G1 X154.5747 Y200.0113 E0.00023
G1 X154.5742 Y200.0183 E0.00023
G1 X154.5734 Y200.0252 E0.00023
G1 X154.5724 Y200.0322 E0.00023
G1 X154.5712 Y200.0390 E0.00023
G1 X154.2381 Y201.7131 E0.05677
G1 X154.2363 Y201.7216 E0.00029
G1 X154.2345 Y201.7283 E0.00023
G1 X154.2325 Y201.7350 E0.00023
G1 X154.2302 Y201.7416 E0.00023
G1 X154.2277 Y201.7481 E0.00023
G1 X154.2250 Y201.7546 E0.00023
G1 X154.2221 Y201.7609 E0.00023
G1 X154.2190 Y201.7672 E0.00023
G1 X154.2156 Y201.7733 E0.00023
G1 X154.2121 Y201.7793 E0.00023
G1 X154.2083 Y201.7851 E0.00023
G1 X153.2596 Y203.2049 E0.05679
G1 X153.2546 Y203.2120 E0.00029
G1 X153.2504 Y203.2176 E0.00023
G1 X153.2460 Y203.2230 E0.00023
G1 X153.2414 Y203.2283 E0.00023
G1 X153.2366 Y203.2333 E0.00023
G1 X153.2316 Y203.2383 E0.00023
G1 X153.2265 Y203.2430 E0.00023
G1 X153.2212 Y203.2475 E0.00023
G1 X153.2158 Y203.2519 E0.00023
G1 X153.2102 Y203.2561 E0.00023
G1 X153.2045 Y203.2601 E0.00023
G1 X151.7856 Y204.2081 E0.05676
G1 X151.7782 Y204.2128 E0.00029
G1 X151.7722 Y204.2164 E0.00023
G1 X151.7661 Y204.2197 E0.00023
G1 X151.7598 Y204.2227 E0.00023
G1 X151.7534 Y204.2256 E0.00023
G1 X151.7470 Y204.2283 E0.00023
G1 X151.7404 Y204.2307 E0.00023
G1 X151.7338 Y204.2329 E0.00023
G1 X151.7271 Y204.2348 E0.00023
G1 X151.7203 Y204.2365 E0.00023
G1 X151.7135 Y204.2380 E0.00023
G1 X150.0390 Y204.5711 E0.05678
G1 X150.0304 Y204.5726 E0.00029
G1 X150.0235 Y204.5735 E0.00023
G1 X150.0166 Y204.5742 E0.00023
G1 X150.0096 Y204.5747 E0.00023
G1 X150.0026 Y204.5749 E0.00023
G1 X149.9956 Y204.5749 E0.00023
G1 X149.9887 Y204.5746 E0.00023
G1 X149.9817 Y204.5741 E0.00023
G1 X149.9748 Y204.5733 E0.00023
G1 X149.9679 Y204.5723 E0.00023
G1 X149.9610 Y204.5711 E0.00023
G1 X148.2865 Y204.2380 E0.05678
G1 X148.2780 Y204.2361 E0.00029
G1 X148.2712 Y204.2343 E0.00023
G1 X148.2645 Y204.2323 E0.00023
G1 X148.2579 Y204.2301 E0.00023
G1 X148.2514 Y204.2276 E0.00023
G1 X148.2450 Y204.2249 E0.00023
G1 X148.2386 Y204.2220 E0.00023
G1 X148.2324 Y204.2189 E0.00023
G1 X148.2263 Y204.2155 E0.00023
G1 X148.2203 Y204.2119 E0.00023
G1 X148.2144 Y204.2081 E0.00023
G1 X146.7955 Y203.2601 E0.05676
G1 X146.7884 Y203.2551 E0.00029
G1 X146.7828 Y203.2508 E0.00023
G1 X146.7774 Y203.2464 E0.00023
G1 X146.7722 Y203.2418 E0.00023
G1 X146.7671 Y203.2370 E0.00023
G1 X146.7622 Y203.2321 E0.00023
G1 X146.7574 Y203.2270 E0.00023
G1 X146.7529 Y203.2217 E0.00023
G1 X146.7485 Y203.2162 E0.00023
G1 X146.7443 Y203.2106 E0.00023
G1 X146.7404 Y203.2049 E0.00023
G1 X145.7917 Y201.7851 E0.05679
G1 X145.7870 Y201.7778 E0.00029
G1 X145.7835 Y201.7718 E0.00023
G1 X145.7802 Y201.7656 E0.00023
G1 X145.7771 Y201.7594 E0.00023
G1 X145.7743 Y201.7530 E0.00023
G1 X145.7716 Y201.7465 E0.00023
G1 X145.7692 Y201.7400 E0.00023
G1 X145.7670 Y201.7333 E0.00023
G1 X145.7651 Y201.7266 E0.00023
G1 X145.7633 Y201.7199 E0.00023
G1 X145.7619 Y201.7131 E0.00023
G1 X145.4288 Y200.0390 E0.05677
G1 X145.4273 Y200.0304 E0.00029
G1 X145.4264 Y200.0235 E0.00023
G1 X145.4257 Y200.0166 E0.00023
G1 X145.4252 Y200.0096 E0.00023
G1 X145.4250 Y200.0026 E0.00023
G1 X145.4250 Y199.9956 E0.00023
G1 X145.4253 Y199.9887 E0.00023
G1 X145.4258 Y199.9817 E0.00023
G1 X145.4266 Y199.9748 E0.00023
G1 X145.4276 Y199.9678 E0.00023
G1 X145.4288 Y199.9610 E0.00023
G1 X145.7619 Y198.2869 E0.05677
G1 X145.7637 Y198.2784 E0.00029
G1 X145.7655 Y198.2717 E0.00023
G1 X145.7675 Y198.2650 E0.00023
G1 X145.7698 Y198.2584 E0.00023
G1 X145.7723 Y198.2519 E0.00023
G1 X145.7750 Y198.2454 E0.00023
G1 X145.7779 Y198.2391 E0.00023
G1 X145.7810 Y198.2328 E0.00023
G1 X145.7844 Y198.2267 E0.00023
G1 X145.7879 Y198.2207 E0.00023
G1 X145.7917 Y198.2149 E0.00023
G1 X146.7404 Y196.7951 E0.05679
G1 X146.7454 Y196.7880 E0.00029
G1 X146.7496 Y196.7824 E0.00023
G1 X146.7540 Y196.7770 E0.00023
G1 X146.7586 Y196.7717 E0.00023
G1 X146.7634 Y196.7667 E0.00023
G1 X146.7684 Y196.7617 E0.00023
G1 X146.7735 Y196.7570 E0.00023
G1 X146.7788 Y196.7525 E0.00023
G1 X146.7842 Y196.7481 E0.00023
G1 X146.7898 Y196.7439 E0.00023
G1 X146.7955 Y196.7399 E0.00023
G1 X148.2144 Y195.7919 E0.05676
G1 X148.2218 Y195.7872 E0.00029
G1 X148.2278 Y195.7836 E0.00023
G1 X148.2339 Y195.7803 E0.00023
G1 X148.2402 Y195.7773 E0.00023
G1 X148.2466 Y195.7744 E0.00023
G1 X148.2530 Y195.7717 E0.00023
G1 X148.2596 Y195.7693 E0.00023
G1 X148.2662 Y195.7671 E0.00023
G1 X148.2729 Y195.7652 E0.00023
G1 X148.2797 Y195.7635 E0.00023
G1 X148.2865 Y195.7620 E0.00023
G1 X149.9610 Y195.4289 E0.05678
G1 X149.9696 Y195.4274 E0.00029
G1 X149.9765 Y195.4265 E0.00023
G1 X149.9834 Y195.4258 E0.00023
G1 X149.9904 Y195.4253 E0.00023
G1 X149.9974 Y195.4251 E0.00023
G0 F3600 X156.9000 Y193.1000 Z0.2000
G1 F1800 X143.1000 Y193.1000 E0.45899
G1 X143.1000 Y206.9000 E0.45899
G1 X156.9000 Y206.9000 E0.45899
G1 X156.9000 Y193.1000 E0.45899
G0 F3600 X149.9921 Y195.0251 Z0.2000
G1 F1800 X150.0131 Y195.0252 E0.00070
G1 X150.0340 Y195.0260 E0.00070
G1 X150.0549 Y195.0276 E0.00070
G1 X150.0757 Y195.0299 E0.00070
G1 X150.0964 Y195.0329 E0.00070
G1 X150.1171 Y195.0366 E0.00070
G1 X151.7915 Y195.3697 E0.05678
G1 X151.8171 Y195.3753 E0.00087
G1 X151.8374 Y195.3807 E0.00070
G1 X151.8574 Y195.3867 E0.00070
G1 X151.8772 Y195.3934 E0.00070
G1 X151.8968 Y195.4009 E0.00070
G1 X151.9161 Y195.4090 E0.00070
G1 X151.9352 Y195.4177 E0.00070
G1 X151.9539 Y195.4272 E0.00070
G1 X151.9722 Y195.4372 E0.00070
G1 X151.9902 Y195.4479 E0.00070
G1 X152.0078 Y195.4593 E0.00070
G1 X153.4267 Y196.4073 E0.05676
G1 X153.4481 Y196.4224 E0.00087
G1 X153.4648 Y196.4350 E0.00070
G1 X153.4810 Y196.4483 E0.00070
G1 X153.4968 Y196.4621 E0.00070
G1 X153.5120 Y196.4764 E0.00070
G1 X153.5268 Y196.4913 E0.00070
G1 X153.5410 Y196.5067 E0.00070
G1 X153.5546 Y196.5226 E0.00070
G1 X153.5678 Y196.5389 E0.00070
G1 X153.5803 Y196.5557 E0.00070
G1 X153.5922 Y196.5729 E0.00070
G1 X154.5409 Y197.9926 E0.05679
G1 X154.5549 Y198.0147 E0.00087
G1 X154.5655 Y198.0328 E0.00070
G1 X154.5754 Y198.0512 E0.00070
G1 X154.5847 Y198.0700 E0.00070
G1 X154.5933 Y198.0891 E0.00070
G1 X154.6012 Y198.1085 E0.00070
G1 X154.6084 Y198.1281 E0.00070
G1 X154.6150 Y198.1480 E0.00070
G1 X154.6209 Y198.1681 E0.00070
G1 X154.6260 Y198.1884 E0.00070
G1 X154.6305 Y198.2089 E0.00070
G1 X154.9635 Y199.8829 E0.05677
G1 X154.9680 Y199.9087 E0.00087
G1 X154.9708 Y199.9295 E0.00070
G1 X154.9729 Y199.9503 E0.00070
G1 X154.9743 Y199.9712 E0.00070
G1 X154.9749 Y199.9922 E0.00070
G1 X154.9749 Y200.0131 E0.00070
G1 X154.9740 Y200.0340 E0.00070
G1 X154.9725 Y200.0549 E0.00070
G1 X154.9702 Y200.0757 E0.00070
G1 X154.9672 Y200.0965 E0.00070
G1 X154.9635 Y200.1171 E0.00070
G1 X154.6305 Y201.7911 E0.05677
G1 X154.6248 Y201.8166 E0.00087
G1 X154.6195 Y201.8369 E0.00070
G1 X154.6134 Y201.8570 E0.00070
G1 X154.6067 Y201.8768 E0.00070
G1 X154.5993 Y201.8964 E0.00070
G1 X154.5912 Y201.9157 E0.00070
G1 X154.5824 Y201.9347 E0.00070
G1 X154.5730 Y201.9534 E0.00070
G1 X154.5629 Y201.9718 E0.00070
G1 X154.5522 Y201.9898 E0.00070
G1 X154.5409 Y202.0074 E0.00070
G1 X153.5922 Y203.4271 E0.05679
G1 X153.5772 Y203.4486 E0.00087
G1 X153.5645 Y203.4652 E0.00070
G1 X153.5513 Y203.4814 E0.00070
G1 X153.5375 Y203.4972 E0.00070
G1 X153.5231 Y203.5124 E0.00070
G1 X153.5083 Y203.5272 E0.00070
G1 X153.4929 Y203.5414 E0.00070
G1 X153.4770 Y203.5551 E0.00070
G1 X153.4607 Y203.5682 E0.00070
G1 X153.4439 Y203.5807 E0.00070
G1 X153.4267 Y203.5927 E0.00070
G1 X152.0078 Y204.5407 E0.05676
G1 X151.9857 Y204.5548 E0.00087
G1 X151.9677 Y204.5654 E0.00070
G1 X151.9492 Y204.5753 E0.00070
G1 X151.9304 Y204.5845 E0.00070
G1 X151.9113 Y204.5931 E0.00070
G1 X151.8919 Y204.6011 E0.00070
G1 X151.8723 Y204.6083 E0.00070
G1 X151.8524 Y204.6149 E0.00070
G1 X151.8323 Y204.6207 E0.00070
G1 X151.8120 Y204.6259 E0.00070
G1 X151.7915 Y204.6303 E0.00070
G1 X150.1171 Y204.9634 E0.05678
G1 X150.0913 Y204.9679 E0.00087
G1 X150.0705 Y204.9708 E0.00070
G1 X150.0497 Y204.9729 E0.00070
G1 X150.0288 Y204.9742 E0.00070
G1 X150.0079 Y204.9749 E0.00070
G1 X149.9869 Y204.9748 E0.00070
G1 X149.9660 Y204.9740 E0.00070
G1 X149.9451 Y204.9724 E0.00070
G1 X149.9243 Y204.9701 E0.00070
G1 X149.9036 Y204.9671 E0.00070
G1 X149.8829 Y204.9634 E0.00070
G1 X148.2085 Y204.6303 E0.05678
G1 X148.1829 Y204.6247 E0.00087
G1 X148.1626 Y204.6193 E0.00070
G1 X148.1426 Y204.6133 E0.00070
G1 X148.1228 Y204.6066 E0.00070
G1 X148.1032 Y204.5991 E0.00070
G1 X148.0839 Y204.5910 E0.00070
G1 X148.0648 Y204.5823 E0.00070
G1 X148.0461 Y204.5728 E0.00070
G1 X148.0278 Y204.5628 E0.00070
G1 X148.0098 Y204.5521 E0.00070
G1 X147.9922 Y204.5407 E0.00070
G1 X146.5733 Y203.5927 E0.05676
G1 X146.5519 Y203.5776 E0.00087
G1 X146.5352 Y203.5650 E0.00070
G1 X146.5190 Y203.5517 E0.00070
G1 X146.5032 Y203.5379 E0.00070
G1 X146.4880 Y203.5236 E0.00070
G1 X146.4732 Y203.5087 E0.00070
G1 X146.4590 Y203.4933 E0.00070
G1 X146.4454 Y203.4774 E0.00070
G1 X146.4322 Y203.4611 E0.00070
G1 X146.4197 Y203.4443 E0.00070
G1 X146.4078 Y203.4271 E0.00070
G1 X145.4591 Y202.0074 E0.05679
G1 X145.4451 Y201.9853 E0.00087
G1 X145.4345 Y201.9672 E0.00070
G1 X145.4246 Y201.9488 E0.00070
G1 X145.4153 Y201.9300 E0.00070
G1 X145.4067 Y201.9109 E0.00070
G1 X145.3988 Y201.8915 E0.00070
G1 X145.3916 Y201.8719 E0.00070
G1 X145.3850 Y201.8520 E0.00070
G1 X145.3791 Y201.8319 E0.00070
G1 X145.3740 Y201.8116 E0.00070
G1 X145.3695 Y201.7911 E0.00070
G1 X145.0365 Y200.1171 E0.05677
G1 X145.0320 Y200.0913 E0.00087
G1 X145.0292 Y200.0705 E0.00070
G1 X145.0271 Y200.0497 E0.00070
G1 X145.0257 Y200.0288 E0.00070
G1 X145.0251 Y200.0078 E0.00070
G1 X145.0251 Y199.9869 E0.00070
G1 X145.0260 Y199.9660 E0.00070
G1 X145.0275 Y199.9451 E0.00070
G1 X145.0298 Y199.9243 E0.00070
G1 X145.0328 Y199.9035 E0.00070
G1 X145.0365 Y199.8829 E0.00070
G1 X145.3695 Y198.2089 E0.05677
G1 X145.3752 Y198.1834 E0.00087
G1 X145.3805 Y198.1631 E0.00070
G1 X145.3866 Y198.1430 E0.00070
G1 X145.3933 Y198.1232 E0.00070
G1 X145.4007 Y198.1036 E0.00070
G1 X145.4088 Y198.0843 E0.00070
G1 X145.4176 Y198.0653 E0.00070
G1 X145.4270 Y198.0466 E0.00070
G1 X145.4371 Y198.0282 E0.00070
G1 X145.4478 Y198.0102 E0.00070
G1 X145.4591 Y197.9926 E0.00070
G1 X146.4078 Y196.5729 E0.05679
G1 X146.4228 Y196.5514 E0.00087
G1 X146.4355 Y196.5348 E0.00070
G1 X146.4487 Y196.5186 E0.00070
G1 X146.4625 Y196.5028 E0.00070
G1 X146.4769 Y196.4875 E0.00070
G1 X146.4917 Y196.4728 E0.00070
G1 X146.5071 Y196.4586 E0.00070
G1 X146.5230 Y196.4449 E0.00070
G1 X146.5393 Y196.4318 E0.00070
G1 X146.5561 Y196.4193 E0.00070
G1 X146.5733 Y196.4073 E0.00070
G1 X147.9922 Y195.4593 E0.05676
G1 X148.0143 Y195.4452 E0.00087
G1 X148.0323 Y195.4346 E0.00070
G1 X148.0508 Y195.4247 E0.00070
G1 X148.0696 Y195.4155 E0.00070
G1 X148.0887 Y195.4069 E0.00070
G1 X148.1081 Y195.3989 E0.00070
G1 X148.1277 Y195.3917 E0.00070
G1 X148.1476 Y195.3851 E0.00070
G1 X148.1677 Y195.3793 E0.00070
G1 X148.1880 Y195.3741 E0.00070
G1 X148.2085 Y195.3697 E0.00070
G1 X149.8829 Y195.0366 E0.05678
G1 X149.9087 Y195.0321 E0.00087
G1 X149.9295 Y195.0292 E0.00070
G1 X149.9503 Y195.0271 E0.00070
G1 X149.9712 Y195.0258 E0.00070
G1 X149.9921 Y195.0251 E0.00070
G0 F3600 X143.7000 Y206.5000 Z0.2000
G1 F1800 X143.7000 Y193.5000 E0.43238
G0 F3600 X144.1000 Y193.5000 Z0.2000
G1 F1800 X144.1000 Y206.5000 E0.43238
G0 F3600 X144.5000 Y206.5000 Z0.2000
G1 F1800 X144.5000 Y193.5000 E0.43238
G0 F3600 X144.9000 Y201.4809 Z0.2000
G1 F1800 X144.9000 Y206.5000 E0.16694
G0 F3600 X145.3000 Y206.5000 Z0.2000
G1 F1800 X145.3000 Y202.4892 E0.13340
G0 F3600 X145.7000 Y203.0878 Z0.2000
G1 F1800 X145.7000 Y206.5000 E0.11349
G0 F3600 X146.1000 Y206.5000 Z0.2000
G1 F1800 X146.1000 Y203.6846 E0.09364
G0 F3600 X146.5000 Y204.0248 Z0.2000
G1 F1800 X146.5000 Y206.5000 E0.08233
G0 F3600 X146.9000 Y206.5000 Z0.2000
G1 F1800 X146.9000 Y204.2920 E0.07344
G0 F3600 X147.3000 Y204.5593 Z0.2000
G1 F1800 X147.3000 Y206.5000 E0.06455
G0 F3600 X147.7000 Y206.5000 Z0.2000
G1 F1800 X147.7000 Y204.8266 E0.05566
G0 F3600 X148.1000 Y205.0159 Z0.2000
G1 F1800 X148.1000 Y206.5000 E0.04936
G0 F3600 X148.5000 Y206.5000 Z0.2000
G1 F1800 X148.5000 Y205.0962 E0.04669
G0 F3600 X148.9000 Y205.1757 Z0.2000
G1 F1800 X148.9000 Y206.5000 E0.04405
G0 F3600 X149.3000 Y206.5000 Z0.2000
G1 F1800 X149.3000 Y205.2553 E0.04140
G0 F3600 X149.7000 Y205.3348 Z0.2000
G1 F1800 X149.7000 Y206.5000 E0.03875
G0 F3600 X150.1000 Y206.5000 Z0.2000
G1 F1800 X150.1000 Y205.3698 E0.03759
G0 F3600 X150.5000 Y205.2951 Z0.2000
G1 F1800 X150.5000 Y206.5000 E0.04008
G0 F3600 X150.9000 Y206.5000 Z0.2000
G1 F1800 X150.9000 Y205.2155 E0.04272
G0 F3600 X151.3000 Y205.1359 Z0.2000
G1 F1800 X151.3000 Y206.5000 E0.04537
G0 F3600 X151.7000 Y206.5000 Z0.2000
G1 F1800 X151.7000 Y205.0564 E0.04802
G0 F3600 X152.1000 Y204.9468 Z0.2000
G1 F1800 X152.1000 Y206.5000 E0.05166
G0 F3600 X152.5000 Y206.5000 Z0.2000
G1 F1800 X152.5000 Y204.6929 E0.06010
G0 F3600 X152.9000 Y204.4257 Z0.2000
G1 F1800 X152.9000 Y206.5000 E0.06899
G0 F3600 X153.3000 Y206.5000 Z0.2000
G1 F1800 X153.3000 Y204.1584 E0.07788
G0 F3600 X153.7000 Y203.8886 Z0.2000
G1 F1800 X153.7000 Y206.5000 E0.08685
G0 F3600 X154.1000 Y206.5000 Z0.2000
G1 F1800 X154.1000 Y203.3872 E0.10353
G0 F3600 X154.5000 Y202.7885 Z0.2000
G1 F1800 X154.5000 Y206.5000 E0.12344
G0 F3600 X154.9000 Y206.5000 Z0.2000
G1 F1800 X154.9000 Y202.1874 E0.14344
G0 F3600 X155.3000 Y200.4755 Z0.2000
G1 F1800 X155.3000 Y206.5000 E0.20038
G0 F3600 X155.7000 Y206.5000 Z0.2000
G1 F1800 X155.7000 Y193.5000 E0.43238
G0 F3600 X156.1000 Y193.5000 Z0.2000
G1 F1800 X156.1000 Y206.5000 E0.43238
G0 F3600 X156.5000 Y206.5000 Z0.2000
G1 F1800 X156.5000 Y193.5000 E0.43238
G0 F3600 X144.9000 Y193.5000 Z0.2000
G1 F1800 X144.9000 Y198.5191 E0.16694
G0 F3600 X145.3000 Y197.5108 Z0.2000
G1 F1800 X145.3000 Y193.5000 E0.13340
G0 F3600 X145.7000 Y193.5000 Z0.2000
G1 F1800 X145.7000 Y196.9122 E0.11349
G0 F3600 X146.1000 Y196.3152 Z0.2000
G1 F1800 X146.1000 Y193.5000 E0.09363
G0 F3600 X146.5000 Y193.5000 Z0.2000
G1 F1800 X146.5000 Y195.9752 E0.08233
G0 F3600 X146.9000 Y195.7080 Z0.2000
G1 F1800 X146.9000 Y193.5000 E0.07344
G0 F3600 X147.3000 Y193.5000 Z0.2000
G1 F1800 X147.3000 Y195.4407 E0.06455
